static/innovation.svg

<svg width="83" height="88" viewBox="0 0 83 88" fill="none" xmlns="http://www.w3.org/2000/svg">
<path d="M58.43 50.8021C65.4598 45.3875 69.4917 37.2003 69.4917 28.3394C69.4917 19.9471 65.8029 12.0348 59.371 6.63142C58.826 6.17355 58.013 6.24436 57.555 6.78938C57.0969 7.33439 57.1675 8.14753 57.7127 8.60558C63.5599 13.5179 66.9135 20.7106 66.9135 28.3394C66.9135 36.3942 63.248 43.837 56.8568 48.7595C55.105 50.1087 54.1003 52.1346 54.1003 54.3176V56.9478H48.1362V53.9172C48.1362 52.4481 46.9412 51.2531 45.4721 51.2531H45.2889V48.1365H46.8471C49.1279 48.1365 50.9837 46.2809 50.9837 44.0001C50.9837 41.7194 49.1279 39.8638 46.8471 39.8638C44.5662 39.8638 42.7108 41.7194 42.7108 44.0001V45.5584H39.5942V44C39.5942 41.7192 37.7386 39.8636 35.4578 39.8636C33.1771 39.8636 31.3213 41.7192 31.3213 44C31.3213 46.2808 33.1771 48.1363 35.4578 48.1363H37.0161V51.2531H36.8328C35.3638 51.2531 34.1688 52.4481 34.1688 53.9172V56.9478H28.2047V54.318C28.2047 52.1352 27.1986 50.1082 25.4446 48.7568C18.9676 43.7667 15.3041 36.2202 15.3932 28.0525C15.4693 21.0337 18.2858 14.516 23.3238 9.70008C28.3689 4.8771 35.0166 2.35191 42.0491 2.59356C46.1076 2.73227 49.9634 3.78741 53.5094 5.7296C54.134 6.07145 54.9172 5.84269 55.2592 5.21827C55.6011 4.59385 55.3721 3.81044 54.7477 3.46841C50.8451 1.3308 46.6024 0.169611 42.1371 0.0169863C34.414 -0.244951 27.0934 2.5298 21.5422 7.83661C15.9983 13.1364 12.8991 20.3058 12.815 28.0247C12.7659 32.5567 13.7552 36.8971 15.7555 40.9255C17.6609 44.7624 20.4672 48.1767 23.8712 50.7992C24.9867 51.6587 25.6266 52.9412 25.6266 54.3181V57.1548C23.9752 57.6979 22.7793 59.2537 22.7793 61.0845C22.7793 62.9153 23.9752 64.4711 25.6266 65.0141V76.8912C25.6266 79.8765 28.0554 82.3052 31.0407 82.3052H31.4107C31.9358 85.5301 34.7394 88 38.1104 88H44.1948C47.5656 88 50.3694 85.5301 50.8945 82.3052H51.2645C54.2498 82.3052 56.6786 79.8765 56.6786 76.8912V65.0141C58.3299 64.471 59.5258 62.9152 59.5258 61.0845C59.5258 59.2537 58.3299 57.6979 56.6786 57.1548V54.3178C56.6786 52.9407 57.3171 51.6594 58.43 50.8021ZM45.2889 44C45.2889 43.1408 45.9879 42.4418 46.8471 42.4418C47.7065 42.4418 48.4055 43.1408 48.4055 44C48.4055 44.8592 47.7065 45.5582 46.8471 45.5582H45.2889V44ZM35.4578 45.5584C34.5985 45.5584 33.8995 44.8593 33.8995 44.0001C33.8995 43.1409 34.5985 42.4419 35.4578 42.4419C36.3171 42.4419 37.0161 43.1409 37.0161 44.0001V45.5584H35.4578ZM39.5942 48.1365H42.7108V51.2531H39.5942V48.1365ZM36.7469 53.9172C36.7469 53.8697 36.7856 53.8312 36.8328 53.8312H45.4723C45.5196 53.8312 45.5583 53.8697 45.5583 53.9172V56.9478H36.7469V53.9172ZM54.1004 68.3375H36.4774C35.7653 68.3375 35.1883 68.9146 35.1883 69.6265C35.1883 70.3384 35.7653 70.9156 36.4774 70.9156H54.1003V74.0322H28.2047V70.9156H31.3213C32.0334 70.9156 32.6104 70.3384 32.6104 69.6265C32.6104 68.9146 32.0334 68.3375 31.3213 68.3375H28.2047V65.2209H54.1004V68.3375ZM44.1948 85.4217H38.1104C36.1668 85.4217 34.5266 84.0981 34.0437 82.3051H48.2617C47.7784 84.0982 46.1382 85.4217 44.1948 85.4217ZM51.2645 79.7269H31.0407C29.4768 79.7269 28.2047 78.4547 28.2047 76.891V76.6103H54.1004V76.891C54.1004 78.4549 52.8282 79.7269 51.2645 79.7269ZM55.3895 62.6427H26.9157C26.0565 62.6427 25.3574 61.9437 25.3574 61.0845C25.3574 60.2251 26.0565 59.5261 26.9157 59.5261H55.3895C56.2487 59.5261 56.9477 60.2251 56.9477 61.0845C56.9477 61.9435 56.2487 62.6427 55.3895 62.6427Z" fill="#1D4283"/>
<path d="M8.27303 28.3394C8.27303 27.6275 7.69605 27.0503 6.98397 27.0503H1.28906C0.576984 27.0503 0 27.6275 0 28.3394C0 29.0513 0.576984 29.6285 1.28906 29.6285H6.98397C7.69588 29.6285 8.27303 29.0513 8.27303 28.3394Z" fill="#1D4283"/>
<path d="M10.9169 44.3073L5.98495 47.1547C5.36844 47.5107 5.1572 48.2991 5.51315 48.9156C5.75206 49.3291 6.18519 49.5603 6.63069 49.5603C6.84931 49.5603 7.0712 49.5046 7.27401 49.3874L12.2058 46.5399C12.8223 46.184 13.0335 45.3956 12.6776 44.7791C12.3215 44.1626 11.5331 43.9512 10.9169 44.3073Z" fill="#1D4283"/>
<path d="M76.32 47.1547L71.3882 44.3073C70.7712 43.951 69.9831 44.1624 69.6273 44.7791C69.2714 45.3956 69.4826 46.184 70.0991 46.5399L75.0309 49.3874C75.2341 49.5046 75.4556 49.5603 75.6742 49.5603C76.1197 49.5603 76.553 49.3291 76.7918 48.9156C77.1477 48.2991 76.9365 47.5107 76.32 47.1547Z" fill="#1D4283"/>
<path d="M81.0155 27.0503H75.3206C74.6087 27.0503 74.0315 27.6275 74.0315 28.3394C74.0315 29.0513 74.6087 29.6285 75.3206 29.6285H81.0155C81.7276 29.6285 82.3046 29.0513 82.3046 28.3394C82.3046 27.6275 81.7276 27.0503 81.0155 27.0503Z" fill="#1D4283"/>
<path d="M70.7449 12.5444C70.9635 12.5444 71.1854 12.4888 71.3882 12.3715L76.32 9.52425C76.9365 9.1683 77.1477 8.37991 76.7918 7.7634C76.436 7.14688 75.6472 6.93565 75.0309 7.2916L70.0991 10.1389C69.4826 10.4948 69.2714 11.2832 69.6273 11.8997C69.8659 12.3131 70.2994 12.5444 70.7449 12.5444Z" fill="#1D4283"/>
<path d="M5.98495 9.5241L10.9167 12.3714C11.1199 12.4886 11.3414 12.5443 11.5601 12.5443C12.0056 12.5443 12.4389 12.3129 12.6776 11.8994C13.0335 11.2829 12.8223 10.4945 12.2058 10.1386L7.27401 7.29145C6.65698 6.93532 5.86894 7.14673 5.51315 7.76324C5.1572 8.37976 5.36844 9.16815 5.98495 9.5241Z" fill="#1D4283"/>
<path d="M41.1524 17.0845C38.8716 17.0845 37.0161 18.9401 37.0161 21.221C37.0161 23.5018 38.8716 25.3574 41.1524 25.3574C43.4333 25.3574 45.2887 23.5018 45.2887 21.221C45.2887 18.9401 43.4332 17.0845 41.1524 17.0845ZM41.1524 22.7793C40.2932 22.7793 39.5942 22.0802 39.5942 21.221C39.5942 20.3618 40.2932 19.6627 41.1524 19.6627C42.0116 19.6627 42.7106 20.3617 42.7106 21.221C42.7106 22.0802 42.0116 22.7793 41.1524 22.7793Z" fill="#1D4283"/>
<path d="M52.8875 16.4193C52.8737 16.3855 52.86 16.3518 52.8459 16.3185L53.7668 14.7836C54.4082 13.7142 54.2405 12.3516 53.3587 11.4699L50.904 9.01497C50.0221 8.13342 48.6597 7.96533 47.5901 8.60694L46.0554 9.52767C46.0219 9.51358 45.988 9.49983 45.9544 9.48608L45.5204 7.74962C45.2179 6.5398 44.1356 5.69486 42.8888 5.69486H39.4169C38.17 5.69486 37.0877 6.5398 36.7852 7.74962L36.3512 9.48608C36.3175 9.49983 36.2836 9.51375 36.2501 9.52767L34.7154 8.60694C33.6462 7.96533 32.2836 8.13325 31.4015 9.01497L28.9468 11.4699C28.0651 12.3516 27.8973 13.7142 28.5389 14.7838L29.4597 16.3185C29.4456 16.352 29.4318 16.3857 29.4181 16.4193L27.6815 16.8535C26.4716 17.156 25.6267 18.2381 25.6267 19.4852V22.9568C25.6267 24.2037 26.4716 25.2859 27.6815 25.5885L29.4181 26.0227C29.4317 26.0564 29.4456 26.0901 29.4597 26.1236L28.5388 27.6584C27.8973 28.7277 28.0651 30.0903 28.9468 30.9722L31.4015 33.4269C32.2834 34.3084 33.646 34.4765 34.7154 33.8349L36.2501 32.9142C36.2836 32.9281 36.3175 32.942 36.3512 32.9558L36.7852 34.6921C37.0877 35.9021 38.17 36.747 39.4169 36.747H42.8886C44.1356 36.747 45.2179 35.9021 45.5202 34.6921L45.9542 32.9558C45.9879 32.942 46.0217 32.9281 46.0552 32.9142L47.5899 33.8349C48.659 34.4764 50.0218 34.3086 50.9038 33.4269L53.3586 30.972C54.2403 30.0903 54.4079 28.7275 53.7664 27.6581L52.8457 26.1234C52.8598 26.0899 52.8737 26.0562 52.8873 26.0225L54.6239 25.5884C55.8336 25.2857 56.6785 24.2036 56.6785 22.9566V19.4851C56.6785 18.2379 55.8336 17.1558 54.6237 16.8533L52.8875 16.4193ZM54.1007 22.9568C54.1007 23.0187 54.0588 23.0725 53.9986 23.0874L51.6066 23.6854C51.1838 23.7911 50.8432 24.1034 50.7009 24.5153C50.5649 24.9091 50.4083 25.2886 50.2352 25.6434C50.044 26.0356 50.0639 26.4977 50.2885 26.8719L51.5561 28.9846C51.5881 29.0377 51.5797 29.1054 51.5358 29.1493L49.0811 31.604C49.0375 31.6476 48.9699 31.6561 48.9166 31.6243L46.8039 30.3565C46.4298 30.1319 45.9672 30.1121 45.5755 30.3034C45.2208 30.4765 44.8413 30.6331 44.4477 30.7688C44.0355 30.911 43.7231 31.2518 43.6174 31.6748L43.0194 34.0668C43.0045 34.1268 42.9508 34.1687 42.889 34.1687H39.4169C39.3552 34.1687 39.3014 34.1268 39.2865 34.0666L38.6885 31.6746C38.5828 31.2516 38.2703 30.9108 37.8582 30.7687C37.4648 30.6329 37.0853 30.4763 36.7303 30.3032C36.5514 30.2159 36.3581 30.1726 36.165 30.1726C35.9349 30.1726 35.7053 30.2341 35.5019 30.3563L33.3893 31.6239C33.3358 31.6561 33.2684 31.6475 33.2248 31.6038L30.7701 29.1491C30.7262 29.1053 30.7178 29.0375 30.7496 28.9844L32.0174 26.8717C32.242 26.4976 32.2619 26.0354 32.0706 25.6432C31.8976 25.2886 31.741 24.9089 31.605 24.5152C31.4627 24.1032 31.1219 23.7909 30.6991 23.6852L28.3073 23.0872C28.2469 23.0723 28.205 23.0185 28.205 22.9566V19.4851C28.205 19.4232 28.2469 19.3694 28.3071 19.3545L30.6991 18.7565C31.1219 18.6508 31.4625 18.3387 31.605 17.9267C31.741 17.5327 31.8977 17.1531 32.0706 16.7987C32.2619 16.4065 32.242 15.9443 32.0174 15.5701L30.7498 13.4574C30.7178 13.4043 30.7262 13.3366 30.7701 13.2928L33.2248 10.8379C33.2681 10.7942 33.3356 10.7856 33.3893 10.8176L35.5019 12.0852C35.8761 12.3096 36.3386 12.3296 36.7303 12.1383C37.0851 11.9652 37.4648 11.8086 37.8582 11.6728C38.2703 11.5307 38.5828 11.1899 38.6885 10.7669L39.2865 8.3749C39.3014 8.31492 39.355 8.27298 39.4169 8.27298H42.8886C42.9503 8.27298 43.0041 8.31492 43.0191 8.3749L43.617 10.7669C43.7227 11.1899 44.0352 11.5307 44.4474 11.6728C44.8408 11.8086 45.2203 11.9652 45.5752 12.1383C45.9673 12.3296 46.4296 12.3096 46.8036 12.0852L48.9163 10.8176C48.9699 10.7855 49.0373 10.794 49.0808 10.8377L51.5355 13.2926C51.5793 13.3364 51.5877 13.4041 51.5559 13.4571L50.2882 15.5699C50.0635 15.9441 50.0436 16.4063 50.2349 16.7985C50.4078 17.1531 50.5646 17.5326 50.7005 17.9265C50.8428 18.3385 51.1835 18.6506 51.6063 18.7563L53.9983 19.3543C54.0584 19.3692 54.1004 19.423 54.1004 19.4849L54.1007 22.9568Z" fill="#1D4283"/>
</svg>

<svg width="83" height="88" fill="none" xmlns="http://www.w3.org/2000/svg"><path d="M58.43 50.802C65.46 45.388 69.492 37.2 69.492 28.34A28.291 28.291 0 0 0 59.37 6.631a1.289 1.289 0 0 0-1.658 1.975 25.719 25.719 0 0 1 9.2 19.733c0 8.055-3.665 15.498-10.056 20.42-1.752 1.35-2.757 3.376-2.757 5.559v2.63h-5.964v-3.03a2.667 2.667 0 0 0-2.664-2.665h-.183v-3.117h1.558A4.141 4.141 0 0 0 50.984 44a4.141 4.141 0 0 0-4.137-4.136A4.14 4.14 0 0 0 42.711 44v1.558h-3.117V44a4.141 4.141 0 0 0-4.136-4.136A4.141 4.141 0 0 0 31.32 44a4.141 4.141 0 0 0 4.137 4.136h1.558v3.117h-.183a2.667 2.667 0 0 0-2.664 2.664v3.03h-5.964v-2.629c0-2.183-1.006-4.21-2.76-5.561-6.477-4.99-10.14-12.537-10.052-20.704.076-7.02 2.893-13.537 7.93-18.353C28.37 4.877 35.018 2.352 42.05 2.594A25.452 25.452 0 0 1 53.51 5.73a1.29 1.29 0 1 0 1.239-2.262A28.005 28.005 0 0 0 42.138.017c-7.724-.262-15.045 2.513-20.596 7.82-5.544 5.3-8.643 12.469-8.727 20.188-.05 4.532.94 8.872 2.94 12.9a28.592 28.592 0 0 0 8.116 9.874c1.116.86 1.756 2.142 1.756 3.52v2.836a4.143 4.143 0 0 0-2.848 3.93 4.143 4.143 0 0 0 2.848 3.93V76.89a5.42 5.42 0 0 0 5.414 5.414h.37C31.936 85.53 34.739 88 38.11 88h6.084c3.37 0 6.174-2.47 6.7-5.695h.37a5.42 5.42 0 0 0 5.414-5.414V65.014a4.143 4.143 0 0 0 2.847-3.93 4.143 4.143 0 0 0-2.847-3.93v-2.836c0-1.377.638-2.659 1.751-3.516zM45.289 44c0-.86.699-1.558 1.558-1.558.86 0 1.559.699 1.559 1.558a1.56 1.56 0 0 1-1.559 1.558H45.29V44zm-9.831 1.558c-.86 0-1.558-.699-1.558-1.558 0-.86.699-1.558 1.558-1.558.86 0 1.558.699 1.558 1.558v1.558h-1.558zm4.136 2.578h3.117v3.117h-3.117v-3.117zm-2.847 5.781c0-.047.039-.086.086-.086h8.64c.047 0 .085.039.085.086v3.03h-8.811v-3.03zM54.1 68.337H36.477a1.289 1.289 0 1 0 0 2.579H54.1v3.116H28.205v-3.116h3.116a1.289 1.289 0 1 0 0-2.578h-3.116V65.22H54.1v3.117zm-9.905 17.085H38.11a4.218 4.218 0 0 1-4.066-3.117h14.218a4.22 4.22 0 0 1-4.067 3.117zm7.07-5.695H31.04a2.84 2.84 0 0 1-2.836-2.836v-.28H54.1v.28a2.839 2.839 0 0 1-2.836 2.836zm4.124-17.084H26.916a1.56 1.56 0 0 1-1.559-1.559c0-.859.7-1.558 1.559-1.558h28.473c.86 0 1.559.7 1.559 1.558a1.56 1.56 0 0 1-1.559 1.559zM8.273 28.34c0-.712-.577-1.29-1.289-1.29H1.289a1.289 1.289 0 1 0 0 2.578h5.695a1.29 1.29 0 0 0 1.289-1.289zM10.917 44.307l-4.932 2.848a1.29 1.29 0 0 0 1.289 2.232l4.932-2.847a1.289 1.289 0 0 0-1.29-2.233zM76.32 47.155l-4.932-2.848A1.288 1.288 0 1 0 70.1 46.54l4.932 2.847a1.289 1.289 0 1 0 1.29-2.233zM81.016 27.05H75.32a1.29 1.29 0 0 0 0 2.578h5.695a1.289 1.289 0 1 0 0-2.578zM70.745 12.544c.218 0 .44-.055.643-.173l4.932-2.847a1.29 1.29 0 0 0-1.29-2.232l-4.93 2.847a1.289 1.289 0 0 0 .645 2.405zM5.985 9.524l4.932 2.847a1.289 1.289 0 1 0 1.29-2.233L7.273 7.292a1.289 1.289 0 1 0-1.289 2.233z" fill="#1D4283"/><path d="M41.152 17.084a4.141 4.141 0 0 0-4.136 4.137 4.141 4.141 0 0 0 4.136 4.136 4.141 4.141 0 0 0 4.137-4.136 4.141 4.141 0 0 0-4.137-4.137zm0 5.695c-.859 0-1.558-.699-1.558-1.558 0-.86.7-1.558 1.558-1.558.86 0 1.559.699 1.559 1.558a1.56 1.56 0 0 1-1.559 1.558z" fill="#1D4283"/><path d="m52.888 16.42-.042-.102.92-1.534a2.709 2.709 0 0 0-.407-3.314l-2.455-2.455a2.71 2.71 0 0 0-3.314-.408l-1.535.92-.1-.04-.435-1.737a2.709 2.709 0 0 0-2.631-2.055h-3.472c-1.247 0-2.33.845-2.632 2.055l-.434 1.736-.1.042-1.536-.921a2.71 2.71 0 0 0-3.314.408l-2.454 2.455a2.709 2.709 0 0 0-.408 3.314l.92 1.534a9.718 9.718 0 0 0-.04.101l-1.738.434a2.709 2.709 0 0 0-2.054 2.632v3.472c0 1.247.845 2.329 2.055 2.631l1.736.435.042.1-.921 1.535a2.709 2.709 0 0 0 .408 3.314l2.454 2.455a2.71 2.71 0 0 0 3.314.408l1.535-.92.101.04.434 1.737a2.709 2.709 0 0 0 2.632 2.055h3.472c1.247 0 2.329-.845 2.631-2.055l.434-1.736.101-.042 1.535.92a2.71 2.71 0 0 0 3.314-.407l2.455-2.455a2.71 2.71 0 0 0 .407-3.314l-.92-1.535.041-.1 1.737-.435a2.71 2.71 0 0 0 2.054-2.631v-3.472c0-1.247-.844-2.33-2.054-2.632l-1.736-.434zm1.213 6.537a.134.134 0 0 1-.102.13l-2.392.598a1.29 1.29 0 0 0-.906.83c-.136.394-.293.774-.466 1.128a1.29 1.29 0 0 0 .053 1.229l1.268 2.113a.134.134 0 0 1-.02.164l-2.455 2.455a.135.135 0 0 1-.164.02l-2.113-1.267a1.289 1.289 0 0 0-1.229-.054c-.354.174-.734.33-1.127.466a1.289 1.289 0 0 0-.83.906l-.599 2.392a.134.134 0 0 1-.13.102h-3.472a.134.134 0 0 1-.13-.102l-.599-2.392a1.289 1.289 0 0 0-.83-.906 10.11 10.11 0 0 1-1.128-.466 1.288 1.288 0 0 0-1.228.053l-2.113 1.268a.134.134 0 0 1-.164-.02l-2.455-2.455a.135.135 0 0 1-.02-.165l1.267-2.112c.225-.374.245-.837.054-1.229-.173-.354-.33-.734-.466-1.128a1.29 1.29 0 0 0-.906-.83l-2.392-.598a.134.134 0 0 1-.102-.13v-3.472c0-.062.042-.116.102-.13l2.392-.599a1.29 1.29 0 0 0 .906-.83c.136-.393.293-.773.466-1.127a1.289 1.289 0 0 0-.054-1.229l-1.267-2.113a.134.134 0 0 1 .02-.164l2.455-2.455a.134.134 0 0 1 .164-.02l2.113 1.267a1.29 1.29 0 0 0 1.228.053c.355-.173.735-.33 1.128-.465.412-.142.725-.483.83-.906l.598-2.392a.134.134 0 0 1 .13-.102h3.473c.061 0 .115.042.13.102l.598 2.392c.106.423.418.764.83.906a10.1 10.1 0 0 1 1.128.465 1.29 1.29 0 0 0 1.229-.053l2.112-1.267a.134.134 0 0 1 .165.02l2.454 2.455a.135.135 0 0 1 .02.164l-1.267 2.113a1.289 1.289 0 0 0-.053 1.229c.173.354.33.734.465 1.128.143.412.483.724.906.83l2.392.597c.06.015.102.069.102.13v3.473z" fill="#1D4283"/></svg>
